src/topics/icons/periscope.svg

<svg height="256" preserveAspectRatio="xMidYMid" viewBox="0 0 256 256" width="256" xmlns="http://www.w3.org/2000/svg"><path d="m76.8483556 31.2888889-13.6391112-13.6391111c2.0366223-1.2003556 4.1102223-2.3381334 6.2208-3.4275556h24.4849778zm17.0666666-17.0666667 17.0666668 17.0666667 17.066667-17.0666667zm12.3363558-12.33635553c-6.7498669 1.15768889-13.3148447 2.84444444-19.6608002 5.01475555l7.3244444 7.32159998zm4.730311 29.40302223h-34.1333334l17.0666666 17.0666667zm16.918755 17.0894222.022756-.0227555h-.042667-34.0906663.0426666l-.0199111.0199111 13.2295108 13.2295111c3.245511-1.0382222 6.593423-1.8403556 10.023823-2.3950222zm-68.1841773 0 .0199111-.0227555h-.0426667-31.8151111c-.3384889.4238222-.6712889.8476444-1.0040889 1.2771555l15.7952 15.7895111zm170.7349333 34.1105778 17.066667 17.0666667 4.289422-4.2894223c-1.149156-4.3548444-2.5344-8.6158222-4.115911-12.7772444zm0 0h-34.133333l17.066666 17.0666667zm-204.8056889 68.2666671h-23.54062221c.84764444 4.724622 1.94275555 9.361066 3.29386667 13.889422l3.18008888 3.177244zm221.8751999 17.066666h-34.133333l17.066666 17.066667zm-17.069511 17.066667 7.947378 7.947378c1.527466-2.594134 2.963911-5.242311 4.312178-7.947378zm-34.133333 0 17.066666 17.066667 17.066667-17.066667zm0 34.133333h-34.133334l17.066667 17.066667z" fill="#eebb1c"/><path d="m128.0512 14.2222222h34.133333l-17.066666 17.0666667zm34.130489 0 17.066667 17.0666667 13.639111-13.6391111c-2.036623-1.2003556-4.113067-2.3381334-6.2208-3.4275556zm-20.622222-13.50826664c-4.440178-.46648889-8.945778-.71395556-13.511111-.71395556-4.565334 0-9.068089.24746667-13.508267.71395556l13.511111 13.50826664zm27.943822 6.18951111c-6.343111-2.17031111-12.908089-3.85706667-19.657956-5.0176l12.3392 12.33635553zm26.814578 41.45208893 16.352711-16.3527112c-.273067-.2389333-.548978-.4750222-.824889-.7139555h-32.594489zm-119.4695114-17.0666667h-32.5973334c-.2730666.2389333-.5489778.4750222-.8220444.7139555l16.3527111 16.3527112zm-34.1333334 34.1333333h-26.3168c-.9415111 1.6782222-1.8432 3.3820445-2.7107555 5.1057778l11.9608889 11.9608889zm85.1854218-17.0439111 10.715023 10.7150222c3.527111.5319111 6.968889 1.3198223 10.302577 2.3608889l13.075912-13.0759111.019911-.0227555h-.042667-34.093511.042667zm-34.1105773-.0227555h-34.0935111.0426666l-.0199111.0199111 17.0439111 17.0467555 17.0467556-17.0439111.0199111-.0227555zm98.0138663 51.2c2.335289 5.2053334 4.050489 10.7434664 5.051734 16.5290664l16.529066-16.5290664zm38.650311 17.0666664 17.066667-17.0666664h-34.133333zm-221.87519956-17.0666664 17.06666666 17.0666664 17.0666667-17.0666664zm34.13617776 0 16.7964445 16.7992884c.9955555-5.882311 2.7278222-11.511466 5.1029333-16.7992884zm153.6028448 51.2000004h-2.2528c-.423823 1.223111-.876089 2.429155-1.362489 3.618133zm-170.6723559 0 17.0666667 17.066666 17.0666666-17.066666zm204.8085329 0 17.066667-17.066667h-34.133333zm24.880356-9.250134c.270222-2.582755.455111-5.188266.568889-7.816533h-8.385422zm-59.016533 9.250134 17.066666-17.066667h-15.738311c-.432355 5.316267-1.450666 10.467555-3.012266 15.382755zm-170.6723559-34.133334 17.0666667 17.066667 16.6826666-16.682667c.0199112-.128.0483556-.256.0682667-.384zm223.5022219 52.827022c.184889-.540444.372623-1.080888.551823-1.627022h-2.178845zm-104.029866 32.506312 17.066666 17.066666 17.066667-17.066666zm-102.4028448 0 17.0666667 17.066666 17.0666667-17.066666zm102.4028448 34.133333h-34.133334l17.066667 17.066667zm-68.2695114 0 14.5607111 14.560711c1.2942222.386844 2.5941333.762311 3.9054222 1.109333l15.6672001-15.670044zm87.8108444-48.722489 14.592 14.589156 17.066667-17.066667h-27.932445c-1.217422.861867-2.454755 1.695289-3.726222 2.477511zm-19.544178 14.589156 9.463467-9.463467c-4.676267 1.92-9.605689 3.339378-14.722845 4.204089zm-131.7290664-17.066667c1.3454222 2.707911 2.7847111 5.356089 4.3121777 7.947378l7.9473778-7.947378zm148.7957334 34.133333h-34.133333l17.066666 17.066667zm44.2624 10.126222c4.056178-3.1488 7.930311-6.519466 11.576889-10.126222h-21.703111zm-112.5290668-10.126222 17.0666668 17.066667 17.066667-17.066667z" fill="#eb4326"/><g fill="#a2509e"><path d="m128.0512 48.3555556-17.066667-17.0666667h34.133334zm51.2-17.0666667h-34.133333l17.066666 17.0666667zm51.202844 51.2 11.960889-11.9608889c-.8704-1.7237333-1.772089-3.4275556-2.7136-5.1057778h-26.313955zm-51.202844-17.0666667h-20.408889c4.457245 2.1930667 8.644267 4.8526222 12.504178 7.9047111zm0 0 17.066667 17.0666667 17.066666-17.0666667zm-102.4028444 0 8.0469333 8.0469334c3.9111111-3.1118223 8.1550222-5.8197334 12.6805333-8.0440889zm-34.1333334 0 17.0666667 17.0666667 17.0666667-17.0666667zm153.3525338-17.0666666h.039822l-.019911.0199111 17.046755 17.0467555 15.954489-15.9544889c-.290133-.3726222-.580267-.7424-.873244-1.1121777zm-34.0736.0227555 17.046755 17.0439111 17.046756-17.0439111.019911-.0227555h-.039822-34.093512.042667zm92.168533 57.8190219c-.384-2.235733-.827733-4.445866-1.325511-6.6417774h-5.316267zm-245.58364456-6.6417774h-5.31911111c-.49777777 2.1930664-.94151111 4.4088884-1.32551111 6.6446224zm187.73902256-17.0666667h-15.399823c2.400712 2.7761778 4.588089 5.7372444 6.530845 8.8661333zm-170.6723559 0h-17.23733332c-1.58435556 4.1614222-2.96675556 8.4224-4.11875556 12.7800889l4.28942222 4.2865778zm49.8545778 0h-15.7184l9.0624 9.0624c1.9712-3.2028445 4.2040889-6.2264889 6.656-9.0624zm-15.7212445 0h-34.1333333-.0028444l17.0666666 17.0666667zm187.7390226 85.3333331 3.177244-3.177244c1.351111-4.528356 2.446222-9.1648 3.293867-13.889422h-23.537778zm-51.2-17.066666 17.066666 17.066666 17.066667-17.066666zm-136.5390226 0 4.1472 4.1472c-.5717333-1.359645-1.0865777-2.747734-1.5729777-4.1472zm-17.0638222-17.066667 17.0666667 17.066667 1.9228444-1.922845c-1.5189333-4.841244-2.5059555-9.912889-2.9326222-15.143822zm0 0h-34.13333331l17.06666671 17.066667zm-42.52444442 0c.11662222 2.625422.29866666 5.233778.57173333 7.819378l7.81653333-7.819378zm213.19395522 0 17.066667-17.066667h-33.496178c.042667.258845.099556.514845.136534.776534zm34.133334 0 8.459377-8.459378c-.059733-2.8928-.210488-5.762844-.4608-8.607289h-25.065244zm-221.8723559-17.066667h-25.06524443c-.25031111 2.844445-.40106667 5.714489-.4608 8.607289l8.45937777 8.459378zm170.6723559 68.266667 17.066666-17.066667h-28.034844c-.833422 1.191822-1.703822 2.3552-2.608356 3.492978zm-122.7832892-13.752889c-.8533334-1.080889-1.6753778-2.184533-2.4661334-3.313778h-28.3534222l17.0666667 17.066667zm-30.8224-3.313778h-34.13333336l17.06666666 17.066667zm-34.13333336 0h-2.17884444c.17635556.546134.36408889 1.086578.55182222 1.629867zm215.46951156 44.797156c2.998044-3.396267 5.8112-6.957511 8.439466-10.663822h-19.103289zm-113.066667-10.663822 17.066667 17.066666 17.066666-17.066666zm68.269511 0 17.066667 17.066666 17.066666-17.066666zm-102.4028444 0 17.0666666 17.066666 17.0666668-17.066666zm-34.1361778 0h-19.1032889c2.6282667 3.706311 5.4442667 7.264711 8.4394667 10.666666zm102.4056892 34.133333 15.670044 15.670044c1.311289-.347022 2.608356-.722489 3.905422-1.109333l14.557867-14.560711zm40.405333 6.274844c3.797333-1.911466 7.480889-4.007822 11.050667-6.274844h-17.322667zm-126.0003556-6.274844c3.5669334 2.267022 7.2533334 4.363378 11.0506667 6.274844l6.2748445-6.274844zm51.4588446-34.133333 5.307733-5.307734c-5.213866-.901689-10.231466-2.369422-14.981689-4.366222zm-51.2000001-17.066667 17.0666667 17.066667 14.7143111-14.714312c-1.2032-.745244-2.3779556-1.536-3.5299556-2.352355zm-34.1333333 0 17.0666666 17.066667 17.0666667-17.066667zm51.2 51.2 17.0666666-17.066667h-34.1333333zm-38.7726223-17.066667c3.6465778 3.606756 7.5207111 6.977422 11.5768889 10.126222l10.1262222-10.126222zm92.7459557 36.906667c8.240355-.176356 16.290133-1.112178 24.075378-2.773333h-26.851556zm-29.624889-2.773333c7.788089 1.661155 15.837867 2.599822 24.078222 2.773333l2.773334-2.773333z"/><path d="m71.1594667 128c0 31.419733 25.4691555 56.888889 56.8888893 56.888889 31.416888 0 56.888888-25.469156 56.888888-56.888889z" opacity=".4"/></g></svg>

<?xml version="1.0" encoding="UTF-8" standalone="no"?>
<svg width="256px" height="256px" viewBox="0 0 256 256" version="1.1" xmlns="http://www.w3.org/2000/svg" xmlns:xlink="http://www.w3.org/1999/xlink" preserveAspectRatio="xMidYMid">
	<g>
		<path d="M76.8483556,31.2888889 L63.2092444,17.6497778 C65.2458667,16.4494222 67.3194667,15.3116444 69.4300444,14.2222222 L93.9150222,14.2222222 L76.8483556,31.2888889 L76.8483556,31.2888889 Z M93.9150222,14.2222222 L110.981689,31.2888889 L128.048356,14.2222222 L93.9150222,14.2222222 L93.9150222,14.2222222 L93.9150222,14.2222222 Z M106.251378,1.88586667 C99.5015111,3.04355556 92.9365333,4.73031111 86.5905778,6.90062222 L93.9150222,14.2222222 L106.251378,1.88586667 L106.251378,1.88586667 Z M110.981689,31.2888889 L76.8483556,31.2888889 L93.9150222,48.3555556 L110.981689,31.2888889 L110.981689,31.2888889 Z M127.900444,48.3783111 L127.9232,48.3555556 L127.880533,48.3555556 L93.7898667,48.3555556 L93.7898667,48.3555556 L93.8325333,48.3555556 L93.8126222,48.3754667 L107.042133,61.6049778 C110.287644,60.5667556 113.635556,59.7646222 117.065956,59.2099556 L127.900444,48.3783111 L127.900444,48.3783111 Z M59.7162667,48.3783111 L59.7361778,48.3555556 L59.6935111,48.3555556 L27.8784,48.3555556 C27.5399111,48.7793778 27.2071111,49.2032 26.8743111,49.6327111 L42.6695111,65.4222222 L59.7162667,48.3783111 L59.7162667,48.3783111 Z M230.4512,82.4888889 L247.517867,99.5555556 L251.807289,95.2661333 C250.658133,90.9112889 249.272889,86.6503111 247.691378,82.4888889 L230.4512,82.4888889 L230.4512,82.4888889 L230.4512,82.4888889 Z M230.4512,82.4888889 L196.317867,82.4888889 L196.317867,82.4888889 L213.384533,99.5555556 L230.4512,82.4888889 L230.4512,82.4888889 Z M25.6455111,150.755556 L2.10488889,150.755556 C2.95253333,155.480178 4.04764444,160.116622 5.39875556,164.644978 L8.57884444,167.822222 L25.6455111,150.755556 L25.6455111,150.755556 Z M247.520711,167.822222 L247.520711,167.822222 L213.387378,167.822222 L230.454044,184.888889 L247.520711,167.822222 L247.520711,167.822222 Z M230.4512,184.888889 L238.398578,192.836267 C239.926044,190.242133 241.362489,187.593956 242.710756,184.888889 L230.4512,184.888889 L230.4512,184.888889 L230.4512,184.888889 Z M196.317867,184.888889 L213.384533,201.955556 L230.4512,184.888889 L196.317867,184.888889 L196.317867,184.888889 L196.317867,184.888889 Z M196.317867,219.022222 L162.184533,219.022222 L179.2512,236.088889 L196.317867,219.022222 L196.317867,219.022222 Z" fill="#EEBB1C"></path>
		<path d="M128.0512,14.2222222 L162.184533,14.2222222 L145.117867,31.2888889 L128.0512,14.2222222 L128.0512,14.2222222 L128.0512,14.2222222 Z M162.181689,14.2222222 L179.248356,31.2888889 L192.887467,17.6497778 C190.850844,16.4494222 188.7744,15.3116444 186.666667,14.2222222 L162.181689,14.2222222 L162.181689,14.2222222 L162.181689,14.2222222 Z M141.559467,0.713955556 C137.119289,0.247466667 132.613689,0 128.048356,0 C123.483022,0 118.980267,0.247466667 114.540089,0.713955556 L128.0512,14.2222222 L141.559467,0.713955556 L141.559467,0.713955556 Z M169.503289,6.90346667 C163.160178,4.73315556 156.5952,3.0464 149.845333,1.88586667 L162.184533,14.2222222 L169.503289,6.90346667 L169.503289,6.90346667 Z M196.317867,48.3555556 L212.670578,32.0028444 C212.397511,31.7639111 212.1216,31.5278222 211.845689,31.2888889 L179.2512,31.2888889 L196.317867,48.3555556 L196.317867,48.3555556 Z M76.8483556,31.2888889 L44.2510222,31.2888889 C43.9779556,31.5278222 43.7020444,31.7639111 43.4289778,32.0028444 L59.7816889,48.3555556 L76.8483556,31.2888889 L76.8483556,31.2888889 Z M42.7150222,65.4222222 L16.3982222,65.4222222 C15.4567111,67.1004444 14.5550222,68.8042667 13.6874667,70.528 L25.6483556,82.4888889 L42.7150222,65.4222222 L42.7150222,65.4222222 Z M127.900444,48.3783111 L138.615467,59.0933333 C142.142578,59.6252444 145.584356,60.4131556 148.918044,61.4542222 L161.993956,48.3783111 L162.013867,48.3555556 L161.9712,48.3555556 L127.877689,48.3555556 L127.877689,48.3555556 L127.920356,48.3555556 L127.900444,48.3783111 L127.900444,48.3783111 Z M93.7898667,48.3555556 L59.6963556,48.3555556 L59.6963556,48.3555556 L59.7390222,48.3555556 L59.7191111,48.3754667 L76.7630222,65.4222222 L93.8097778,48.3783111 L93.8296889,48.3555556 L93.7898667,48.3555556 L93.7898667,48.3555556 Z M191.803733,99.5555556 C194.139022,104.760889 195.854222,110.299022 196.855467,116.084622 L213.384533,99.5555556 L213.384533,99.5555556 L191.803733,99.5555556 L191.803733,99.5555556 Z M230.454044,116.622222 L247.520711,99.5555556 L247.520711,99.5555556 L213.387378,99.5555556 L230.454044,116.622222 L230.454044,116.622222 Z M8.57884444,99.5555556 L25.6455111,116.622222 L42.7121778,99.5555556 L42.7121778,99.5555556 L8.57884444,99.5555556 L8.57884444,99.5555556 Z M42.7150222,99.5555556 L59.5114667,116.354844 C60.5070222,110.472533 62.2392889,104.843378 64.6144,99.5555556 L42.7150222,99.5555556 L42.7150222,99.5555556 Z M196.317867,150.755556 L194.065067,150.755556 C193.641244,151.978667 193.188978,153.184711 192.702578,154.373689 L196.317867,150.755556 L196.317867,150.755556 Z M25.6455111,150.755556 L42.7121778,167.822222 L59.7788444,150.755556 L25.6455111,150.755556 L25.6455111,150.755556 Z M230.454044,150.755556 L247.520711,133.688889 L213.387378,133.688889 L230.454044,150.755556 L230.454044,150.755556 Z M255.3344,141.505422 C255.604622,138.922667 255.789511,136.317156 255.903289,133.688889 L247.517867,133.688889 L255.3344,141.505422 L255.3344,141.505422 Z M196.317867,150.755556 L213.384533,133.688889 L197.646222,133.688889 C197.213867,139.005156 196.195556,144.156444 194.633956,149.071644 L196.317867,150.755556 L196.317867,150.755556 Z M25.6455111,116.622222 L42.7121778,133.688889 L59.3948444,117.006222 C59.4147556,116.878222 59.4432,116.750222 59.4631111,116.622222 L25.6455111,116.622222 L25.6455111,116.622222 Z M249.147733,169.449244 C249.332622,168.9088 249.520356,168.368356 249.699556,167.822222 L247.520711,167.822222 L249.147733,169.449244 L249.147733,169.449244 Z M145.117867,201.955556 L162.184533,219.022222 L179.2512,201.955556 L179.2512,201.955556 L145.117867,201.955556 L145.117867,201.955556 Z M42.7150222,201.955556 L59.7816889,219.022222 L76.8483556,201.955556 L76.8483556,201.955556 L42.7150222,201.955556 L42.7150222,201.955556 Z M145.117867,236.088889 L110.984533,236.088889 L128.0512,253.155556 L145.117867,236.088889 L145.117867,236.088889 Z M76.8483556,236.088889 L91.4090667,250.6496 C92.7032889,251.036444 94.0032,251.411911 95.3144889,251.758933 L110.981689,236.088889 L76.8483556,236.088889 L76.8483556,236.088889 Z M164.6592,187.3664 L179.2512,201.955556 L196.317867,184.888889 L168.385422,184.888889 C167.168,185.750756 165.930667,186.584178 164.6592,187.3664 L164.6592,187.3664 Z M145.115022,201.955556 L154.578489,192.492089 C149.902222,194.412089 144.9728,195.831467 139.855644,196.696178 L145.115022,201.955556 L145.115022,201.955556 Z M13.3859556,184.888889 C14.7313778,187.5968 16.1706667,190.244978 17.6981333,192.836267 L25.6455111,184.888889 L13.3859556,184.888889 L13.3859556,184.888889 Z M162.181689,219.022222 L128.048356,219.022222 L145.115022,236.088889 L162.181689,219.022222 L162.181689,219.022222 Z M206.444089,229.148444 C210.500267,225.999644 214.3744,222.628978 218.020978,219.022222 L196.317867,219.022222 L206.444089,229.148444 L206.444089,229.148444 Z M93.9150222,219.022222 L110.981689,236.088889 L128.048356,219.022222 L93.9150222,219.022222 L93.9150222,219.022222 Z" fill="#EB4326"></path>
		<path d="M128.0512,48.3555556 L110.984533,31.2888889 L145.117867,31.2888889 L128.0512,48.3555556 L128.0512,48.3555556 Z M179.2512,31.2888889 L145.117867,31.2888889 L162.184533,48.3555556 L179.2512,31.2888889 L179.2512,31.2888889 Z M230.454044,82.4888889 L242.414933,70.528 C241.544533,68.8042667 240.642844,67.1004444 239.701333,65.4222222 L213.387378,65.4222222 L230.454044,82.4888889 L230.454044,82.4888889 Z M179.2512,65.4222222 L158.842311,65.4222222 C163.299556,67.6152889 167.486578,70.2748444 171.346489,73.3269333 L179.2512,65.4222222 L179.2512,65.4222222 Z M179.2512,65.4222222 L196.317867,82.4888889 L213.384533,65.4222222 L179.2512,65.4222222 L179.2512,65.4222222 Z M76.8483556,65.4222222 L84.8952889,73.4691556 C88.8064,70.3573333 93.0503111,67.6494222 97.5758222,65.4250667 L76.8483556,65.4222222 L76.8483556,65.4222222 Z M42.7150222,65.4222222 L59.7816889,82.4888889 L76.8483556,65.4222222 L42.7150222,65.4222222 L42.7150222,65.4222222 Z M196.067556,48.3555556 L196.107378,48.3555556 L196.087467,48.3754667 L213.134222,65.4222222 L229.088711,49.4677333 C228.798578,49.0951111 228.508444,48.7253333 228.215467,48.3555556 L196.067556,48.3555556 L196.067556,48.3555556 L196.067556,48.3555556 Z M161.993956,48.3783111 L179.040711,65.4222222 L196.087467,48.3783111 L196.107378,48.3555556 L196.067556,48.3555556 L161.974044,48.3555556 L161.974044,48.3555556 L162.016711,48.3555556 L161.993956,48.3783111 L161.993956,48.3783111 Z M254.162489,106.197333 C253.778489,103.9616 253.334756,101.751467 252.836978,99.5555556 L247.520711,99.5555556 L254.162489,106.197333 L254.162489,106.197333 Z M8.57884444,99.5555556 L3.25973333,99.5555556 C2.76195556,101.748622 2.31822222,103.964444 1.93422222,106.200178 L8.57884444,99.5555556 L8.57884444,99.5555556 L8.57884444,99.5555556 Z M196.317867,82.4888889 L180.918044,82.4888889 C183.318756,85.2650667 185.506133,88.2261333 187.448889,91.3550222 L196.317867,82.4888889 L196.317867,82.4888889 Z M25.6455111,82.4888889 L8.40817778,82.4888889 C6.82382222,86.6503111 5.44142222,90.9112889 4.28942222,95.2689778 L8.57884444,99.5555556 L25.6455111,82.4888889 L25.6455111,82.4888889 Z M75.5000889,82.4888889 L59.7816889,82.4888889 L59.7816889,82.4888889 L68.8440889,91.5512889 C70.8152889,88.3484444 73.0481778,85.3248 75.5000889,82.4888889 L75.5000889,82.4888889 Z M59.7788444,82.4888889 L25.6455111,82.4888889 L25.6426667,82.4888889 L42.7093333,99.5555556 L59.7788444,82.4888889 L59.7788444,82.4888889 Z M247.517867,167.822222 L250.695111,164.644978 C252.046222,160.116622 253.141333,155.480178 253.988978,150.755556 L230.4512,150.755556 L247.517867,167.822222 L247.517867,167.822222 Z M196.317867,150.755556 L213.384533,167.822222 L230.4512,150.755556 L196.317867,150.755556 L196.317867,150.755556 Z M59.7788444,150.755556 L63.9260444,154.902756 C63.3543111,153.543111 62.8394667,152.155022 62.3530667,150.755556 L59.7788444,150.755556 L59.7788444,150.755556 Z M42.7150222,133.688889 L59.7816889,150.755556 L61.7045333,148.832711 C60.1856,143.991467 59.1985778,138.919822 58.7719111,133.688889 L42.7150222,133.688889 L42.7150222,133.688889 Z M42.7150222,133.688889 L8.58168889,133.688889 L25.6483556,150.755556 L42.7150222,133.688889 L42.7150222,133.688889 Z M0.190577778,133.688889 C0.3072,136.314311 0.489244444,138.922667 0.762311111,141.508267 L8.57884444,133.688889 L0.190577778,133.688889 L0.190577778,133.688889 Z M213.384533,133.688889 L230.4512,116.622222 L196.955022,116.622222 C196.997689,116.881067 197.054578,117.137067 197.091556,117.398756 L213.384533,133.688889 L213.384533,133.688889 Z M247.517867,133.688889 L255.977244,125.229511 C255.917511,122.336711 255.766756,119.466667 255.516444,116.622222 L230.4512,116.622222 L247.517867,133.688889 L247.517867,133.688889 Z M25.6455111,116.622222 L0.580266667,116.622222 C0.329955556,119.466667 0.1792,122.336711 0.119466667,125.229511 L8.57884444,133.688889 L25.6455111,116.622222 L25.6455111,116.622222 Z M196.317867,184.888889 L213.384533,167.822222 L213.384533,167.822222 L185.349689,167.822222 C184.516267,169.014044 183.645867,170.177422 182.741333,171.3152 L196.317867,184.888889 L196.317867,184.888889 Z M73.5345778,171.136 C72.6812444,170.055111 71.8592,168.951467 71.0684444,167.822222 L42.7150222,167.822222 L59.7816889,184.888889 L73.5345778,171.136 L73.5345778,171.136 Z M42.7121778,167.822222 L8.57884444,167.822222 L25.6455111,184.888889 L42.7121778,167.822222 L42.7121778,167.822222 L42.7121778,167.822222 Z M8.57884444,167.822222 L6.4,167.822222 C6.57635556,168.368356 6.76408889,168.9088 6.95182222,169.452089 L8.57884444,167.822222 L8.57884444,167.822222 L8.57884444,167.822222 Z M224.048356,212.619378 C227.0464,209.223111 229.859556,205.661867 232.487822,201.955556 L213.384533,201.955556 L224.048356,212.619378 L224.048356,212.619378 Z M110.981689,201.955556 L128.048356,219.022222 L145.115022,201.955556 L145.115022,201.955556 L110.981689,201.955556 L110.981689,201.955556 Z M179.2512,201.955556 L196.317867,219.022222 L213.384533,201.955556 L213.384533,201.955556 L179.2512,201.955556 L179.2512,201.955556 Z M76.8483556,201.955556 L93.9150222,219.022222 L110.981689,201.955556 L110.981689,201.955556 L76.8483556,201.955556 L76.8483556,201.955556 Z M42.7121778,201.955556 L23.6088889,201.955556 C26.2371556,205.661867 29.0531556,209.220267 32.0483556,212.622222 L42.7121778,201.955556 L42.7121778,201.955556 L42.7121778,201.955556 Z M145.117867,236.088889 L160.787911,251.758933 C162.0992,251.411911 163.396267,251.036444 164.693333,250.6496 L179.2512,236.088889 L145.117867,236.088889 L145.117867,236.088889 Z M185.5232,242.363733 C189.320533,240.452267 193.004089,238.355911 196.573867,236.088889 L179.2512,236.088889 L185.5232,242.363733 L185.5232,242.363733 Z M59.5228444,236.088889 C63.0897778,238.355911 66.7761778,240.452267 70.5735111,242.363733 L76.8483556,236.088889 L59.5228444,236.088889 L59.5228444,236.088889 Z M110.981689,201.955556 L116.289422,196.647822 C111.075556,195.746133 106.057956,194.2784 101.307733,192.2816 L110.981689,201.955556 L110.981689,201.955556 Z M59.7816889,184.888889 L59.7816889,184.888889 L76.8483556,201.955556 L91.5626667,187.241244 C90.3594667,186.496 89.1847111,185.705244 88.0327111,184.888889 L59.7816889,184.888889 L59.7816889,184.888889 Z M25.6483556,184.888889 L25.6483556,184.888889 L42.7150222,201.955556 L59.7816889,184.888889 L25.6483556,184.888889 L25.6483556,184.888889 Z M76.8483556,236.088889 L93.9150222,219.022222 L59.7816889,219.022222 L76.8483556,236.088889 L76.8483556,236.088889 Z M38.0757333,219.022222 C41.7223111,222.628978 45.5964444,225.999644 49.6526222,229.148444 L59.7788444,219.022222 L38.0757333,219.022222 L38.0757333,219.022222 Z M130.821689,255.928889 C139.062044,255.752533 147.111822,254.816711 154.897067,253.155556 L128.045511,253.155556 L130.821689,255.928889 L130.821689,255.928889 Z M101.1968,253.155556 C108.984889,254.816711 117.034667,255.755378 125.275022,255.928889 L128.048356,253.155556 L101.1968,253.155556 L101.1968,253.155556 Z" fill="#A2509E"></path>
		<path d="M71.1594667,128 C71.1594667,159.419733 96.6286222,184.888889 128.048356,184.888889 C159.465244,184.888889 184.937244,159.419733 184.937244,128 L71.1594667,128 L71.1594667,128 Z" opacity="0.4" fill="#A2509E"></path>
	</g>
</svg>
